src/icons/zoom-in.svg

<svg width="16" height="16" viewBox="0 0 16 16" fill="none" xmlns="http://www.w3.org/2000/svg">
<path fill-rule="evenodd" clip-rule="evenodd" d="M12.0275 6.14873C12.1231 7.56661 11.6682 8.96674 10.7575 10.0577L15.0175 14.3177L14.3176 15.0276L10.0575 10.7576C8.96661 11.6683 7.56649 12.1233 6.14861 12.0276C4.73072 11.932 3.40437 11.2933 2.44561 10.2443C1.48684 9.19535 0.969494 7.81704 1.00139 6.39629C1.03329 4.97554 1.61188 3.62174 2.61675 2.61687C3.62162 1.612 4.97542 1.03341 6.39617 1.00151C7.81691 0.969617 9.19523 1.48697 10.2442 2.44573C11.2931 3.40449 11.9319 4.73085 12.0275 6.14873ZM6.57756 11.0376C7.77042 11.0355 8.91377 10.5609 9.7575 9.7177L9.71758 9.73772C10.1447 9.32086 10.4849 8.82328 10.7183 8.27397C10.9518 7.72467 11.0739 7.13449 11.0776 6.53765C11.0776 5.64763 10.8136 4.77767 10.3191 4.03765C9.82467 3.29763 9.12188 2.72077 8.29961 2.38018C7.47734 2.03958 6.57255 1.95044 5.69963 2.12407C4.82672 2.29771 4.02489 2.7263 3.39556 3.35564C2.76622 3.98498 2.33762 4.7868 2.16399 5.65972C1.99036 6.53263 2.0795 7.43743 2.42009 8.25969C2.76069 9.08196 3.33742 9.78476 4.07744 10.2792C4.81746 10.7737 5.68755 11.0376 6.57756 11.0376ZM9.01749 7.03772V6.03772H7.01749V4.03772H6.01749V6.03772H4.01749V7.03772H6.01749V9.03772H7.01749V7.03772H9.01749Z" fill="#C5C5C5"/>
</svg>

<svg width="16" height="16" xmlns="http://www.w3.org/2000/svg"><path fill-rule="evenodd" clip-rule="evenodd" d="M12.027 6.149a5.52 5.52 0 0 1-1.27 3.909l4.26 4.26-.7.71-4.26-4.27a5.52 5.52 0 1 1 1.97-4.61zm-5.45 4.889a4.51 4.51 0 0 0 3.18-1.32l-.04.02a4.51 4.51 0 0 0 1.36-3.2 4.5 4.5 0 1 0-4.5 4.5zm2.44-4v-1h-2v-2h-1v2h-2v1h2v2h1v-2h2z"/></svg>
